X:1
T:Title
%%score { ( 1 4 ) | ( 2 3 ) }
L:1/8
M:4/4
K:Eb
V:1 treble nm="Grand Piano"
V:4 treble 
V:2 bass 
V:3 bass 
V:1
 z4 z2[Q:1/4=92] [EG][FA] | [GB][GB][GB][GB] [Ge][GB]GE | A2 G2 A2 FG | %3
 [FA][FA][FA][FA] [Fd][Ac][GB]A | [B,EG]2 [B,FA]2 [EGB]2 [B,EG][B,FA] | %5
 [GB][GB][GB][GB] [Ge][GB]GE | F2 G2 A2 dc | BeBc G2 [DF]>[DF] | E6 z2 | %9
 [Ge]2 [Ge]>[Ge] e-[B,Ge-][B,Ae-][EBe] | [Ece]2 [EBd]>[EAc] [EGB]4 | %11
 [B,FB][B,FB][B,FB][B,FB] ccde | d2 c2 [DB]2 A2 | GGG[FA] [GB][GB][Ge]G | F2 G2 A2 dc | %15
 BeBc G2 [DF]>[DF] |[M:8/4] E8 z8 |] %17
V:2
 z4 z2 [E,B,][E,B,] | [E,E][E,E][E,E][E,E] [E,B,][E,E][E,B,E][G,B,] | %2
 [F,B,D]2 [=E,B,_D]2 [F,B,=D]2 [B,D][B,E] | [B,,B,][B,,B,][B,,B,][B,,B,] [B,,B,]2 z F | %4
 E,2 E,2 E,2 E,E, | [E,E][E,E][E,E][E,E] [E,B,][E,E][E,B,E][G,B,] | %6
 [A,CE]2 [G,C=E]2 [F,CF]2 [F,C_E][F,=A,E] | [G,B,E][G,B,E][G,E][A,E] [B,E]2 [B,,A,]>[B,,A,] | %8
 [E,G,]6 z2 | [E,B,]2 [E,B,]>[E,B,] [E,B,]E,F,G, | A,2 A,>A, E,4 | %11
 D,D,D,D,[K:treble] [F,=A,F][F,A,F][F,B,F][F,CG] | [B,F]2[K:bass] [F,=A,E]2 z2 F2 | %13
 [E,B,E][E,B,E][E,B,E][E,B,] [E,E][E,E][E,B,][E,B,E] | [A,CE]2 [G,C=E]2 [F,CF]2 [F,C_E][F,=A,E] | %15
 [G,B,E][G,B,E][G,E][A,E] [B,E]2 [B,,A,]>[B,,A,] |[M:8/4] [E,G,]8 z8 |] %17
V:3
 x8 | x8 | x8 | z4 z2 [B,,B,]2 | x8 | x8 | x8 | x8 | x8 | x8 | x8 | x4[K:treble] x4 | %12
 z4[K:bass] [B,,B,]4 | x8 | x8 | x8 |[M:8/4] x16 |] %17
V:4
 x8 | x8 | x8 | x8 | x8 | x8 | x8 | x8 | x8 | z4 .G2 z2 | x8 | x8 | x8 | x8 | x8 | x8 | %16
[M:8/4] x16 |] %17

